X:1
T:Title
%%score [ 1 2 3 ( 4 5 6 ) ]
L:1/8
Q:1/4=120
M:2/4
K:A
V:1 treble nm="Soprano"
V:2 treble nm="Alto"
V:3 treble-8 nm="Tenor"
V:4 bass nm="Bass"
V:5 bass 
V:6 bass 
V:1
 z2 E2 | A>B AB | cA GA | BA GF | G E3 | z2 z e | c>c BB | cA AA | cB AG | A c3 | z4 | z4 | z4 | %13
w: I|am the Rose of|Sha- ron and the|li- ly of the|val- ley,|I|am the Rose of|Sha- ron and the|li- ly of the|val- ley.||||
 z4 | z4 | z4 | z4 | z4 | z4 | z4 | z4 | z4 | z4 | A>B c>d | e2 e>f | d2 c2 | B4 | c>B A>c | %28
w: ||||||||||so is my Be-|lo- ved a-|mong the|Sons,|so is my Be-|
 B2 A>B | A2 G2 | A4 | z4 | z2 c2 | e2 c2 | B2 BB | B A2 A | c2 B2 | (A2 G2) | z2 E>E | A>B A>B | %40
w: lo- ved a-|mong the|Sons.||I|sat down|un- der his|shad- ow with|great de-|light, _|And his|fruit, _ and his|
 c2 Bc | dc BA | B4 | z2 A>c | B2 BB | A2 e2 | dB A2 | G2 A2- | A4 |[M:6/4] z12 | z12 | z12 | z12 | %53
w: fruit was _|sweet _ to my|taste,|and his|fruit, and his|fruit was|sweet _ to|my taste.|_|||||
 z4 z2 z4 A2 | c4 A2 B4 B2 | A2 c2 c2 c4 B2 | A2 c2 A2 B2 e2 c2 | A2 d2 B2 c6 |[M:2/4] z4 | ed cB | %60
w: He|brought me to the|Ban- quet- ing House, His|Ban- * ner o- * ver|me _ was Love.||Stay _ me with|
 c A3 | z4 | z4 | z4 | z2 z c | dc BA | (A2 G)A | c2 e>d | c>d B>c | A2 e2 | c4 | z2 c2 | B2 B2 | %73
w: Flag- ons,||||for|I _ am _|sick, _ for|I am *|sick _ _ _|_ of|Love.|I|charge you,|
 c>B c2 | c2 c>B | B>B B2 | ed cB | cd e2 | dc B2- | B2 z2 | z4 | z4 | z4 | z4 | z4 | z4 | B>B cd | %87
w: O ye Daugh-|ters of Je-|ru- sa- lem,|by the Roes and|by the Hinds|of the Field,|_|||||||that you stir not|
 e2 e/d/ c/A/ | B4- | B2 c2 | e4 | e2 (c2 | B2) A2 | B4 | B2 A2 | A2 G2 | A4 |:[M:6/8] z2 z z2 E | %98
w: up nor * A- *|wake,|_ A-|wake,|A- wake,|_ A-|wake|my Love|till he|please.|The|
 A2 c B2 d | c A2 z2 z | z6 | z6 | z6 | z6 | z2 z A c2 | z6 | cBB Bc e/d/ | c3 A3 | Acc BAB | %109
w: voice of my Be-|lov- ed,|||||skipp- ing,||Leap- ing up- on _ the *|moun- tains,|skipp- ing up- on _ the|
 c3- c3 |[M:2/4] z4 | z4 | z2 z c | dc BA | G2 z2 | z4 | z4 | z4 | z2 A>c | B3 B | A2 A2 | e2 ee | %122
w: Hills. *|||and|said _ un- to|me:||||rise _|up, my|Love, my|fair one, and|
 (fe d)c | B4 | z2 c>d |[M:6/4] e4 d2 c2 A2 c2 | d6- d4 d2 | (c2 e2) e2 f2 e2 ^d2 | e6- e4 AB | %129
w: come _ _ a-|way,|for _|Lo, the Win- ter is|past, _ the|rain _ is o- ver and|gone, _ for *|
 c4 B2 A2 A2 A2 | A6- A4 B2 | (c2 e2) c2 A2 d2 B2 | c6- c6 | z4 z2 z4 B2 | A4 A2 A2 A2 A2 | %135
w: lo, the Win- ter is|past, _ the|rain _ is o- ver and|gone, _|the|rain is o- ver, the|
 c4 c2 A2 c2 B2 | c6- c4 AB | c4 B2 A2 A2 A2 | A6- A4 B2 | (c2 e2) c2 A2 d2 B2 | c6- c6 :| %141
w: rain is o- ver and|gone, _ for *|lo, the Win- ter is|past, _ the|rain * is o- ver and|gone. _|
V:2
 z4 | z4 | z4 | z4 | z4 | z2 E2 | G>G GG | AE FA | GF EE | E E3 | z4 | z4 | z4 | z4 | z4 | z4 | %16
w: |||||I|am the Rose of|Sha- ron and the|li- ly of the|val- ley.|||||||
 z4 | z4 | z4 | z4 | z4 | z4 | z4 | z4 | z4 | z4 | z4 | E>E F>A | G2 F>F | E2 E2 | E4 | z4 | z4 | %33
w: |||||||||||so is my Be-|lo- ved a-|mong the|Sons.|||
 E2 A2 | F2 F2 | EE EE- | EE EE | E4 | z4 | z4 | z4 | z4 | z4 | z2 E>A | G2 GG | A2 G2 | F2 F2 | %47
w: I sat|down un-|der his shad- ow|* with great de-|light,||||||and his|fruit, and his|fruit was|sweet to|
 E2 E2- | E4 |[M:6/4] z12 | z12 | z12 | z12 | z4 z2 z4 E2 | E4 E2 E4 G2 | A2 A2 A2 A4 G2 | %56
w: my taste.|_|||||He|brought me to the|Ban- quet- ing House, His|
 A F3 F2 G E3 C2 | F4 E2 E6 |[M:2/4] z4 | z4 | z4 | z4 | z4 | z4 | z4 | z4 | z2 z E | E2 A2 | %68
w: Ban- * ner o- * ver|me was Love.|||||||||for|I am|
 G>A F>G | E2 E2 | E4 | z2 A2 | G2 G2 | A>B A2 | A2 A>F | G>G G2 | z4 | z4 | z4 | z4 | z4 | z4 | %82
w: sick _ _ _|_ of|Love.|I|charge you,|O ye Daugh-|ters of Je-|ru- sa- lem,|||||||
 z4 | z4 | AE FG | A4 | G>G GG | A2 EA | G4- | G2 G2 | A4 | G2 E2- | E2 FA | G4 | G2 A2 | F2 E2 | %96
w: ||that you stir not|up,|that you stir not|up nor A-|wake,|_ A-|wake,|A- wake,|_ A- *|wake|my Love|till he|
 E4 |:[M:6/8] z6 | z6 | z6 | z6 | z6 | z6 | z6 | z6 | z2 z E A2 | EGG G2 E | A3 F3 | EEE F2 E | %109
w: please.|||||||||skipp- ing,|Leap- ing up- on the|moun- tains,|skipp- ing up- on the|
 E3- E3 |[M:2/4] z4 | z4 | z4 | z4 | z4 | z4 | z4 | E2 A2 | z2 EA | G3 G | F2 F2 | G2 E2 | z4 | %123
w: Hills. *||||||||rise up,|rise _|up, my|Love, my|fair one,||
 z4 | z4 |[M:6/4] z12 | z12 | z12 | z4 z2 z4 E2 | A4 G2 F2 F2 F2 | F6- F4 F2 | E4 E2 F2 F2 E2 | %132
w: |||||for|lo, the Win- ter is|past, _ the|rain is o- ver and|
 E6- E4 E2 | E4 E2 E2 E2 E2 | E4 E2 E2 E2 E2 | A4 A2 A2 A2 G2 | A6- A4 E2 | A4 G2 F2 F2 F2 | %138
w: gone, _ the|rain is o- ver, the|rain is o- ver, the|rain is o- ver and|gone, _ for|lo, the Win- ter is|
 F6- F4 F2 | E4 E2 F2 F2 E2 | E6- E6 :| %141
w: past, _ the|rain is o- ver and|gone. _|
V:3
 z4 | z4 | z4 | z4 | z4 | z2 A2 | e>e ee | ec Ac | ed cB | c A3 | z4 | z4 | z4 | z4 | z4 | z4 | %16
w: |||||I|am the Rose of|Sha- ron and the|li- ly of the|val- ley.|||||||
 z4 | z2 AB | cA Ac | dB A G/A/ | (B/c/B/c/ B)A | (GF/G/ E)F/G/ | A4 | A>E A>B | c2 c>d | B2 A2 | %26
w: |As the|Ap- ple- tree, the|Ap- ple- tree a- *|mong _ _ _ _ the|trees _ _ _ of the|wood,|so is my Be-|lo- ved a-|mong the|
 E4 | A>B c>d | e2 d>d | c2 B2 | A4 | z4 | c>d e2 | A4 | dc BA | G E2 E | (A>c B>)d | (c2 B2) | %38
w: Sons,|so is my Be-|lo- ved a-|mong the|Sons.||I _ sat|down|un- * der his|shad- ow with|great _ _ de-|light, _|
 z4 | z4 | z4 | z4 | z4 | z2 c>d | e>f ed | c2 BA | d2 c2 | B2 A2- | A4 |[M:6/4] z12 | z12 | z12 | %52
w: |||||and his|fruit _ _ _|_ was _|sweet to|my taste.|_||||
 z12 | z4 z2 z4 E2 | A4 c2 B4 d2 | c2 e2 e2 e4 d2 | c A3 c2 e c3 A2 | d B3 G2 A6 |[M:2/4] z4 | z4 | %60
w: |He|brought me to the|Ban- quet- ing House, His|Ban- * ner o- * ver|me _ was Love.|||
 z4 | BB BA | G E2 E | A>c B>d | c2 B z | z4 | z2 z E | A>B c>d | e>f d>e | c2 B2 | A4 | z2 c2 | %72
w: |Com- fort me with|Ap- ples, for|I _ am _|sick, *||for|I _ am _|sick _ _ _|_ of|Love.|I|
 e2 e2 | e>e f2 | f2 e>^d | e>e e2 | cB AE | AB c2 | BA E2- | E2 z2 | z4 | z4 | cA cd | e4 | z4 | %85
w: charge you,|O ye Daugh-|ters of Je-|ru- sa- lem,|by the Roes and|by the Hinds|of the Field,|_|||that you stir not|up,||
 z4 | e>f ed | c2 BA | e4- | e2 ed | c4 | B2 (A2 | B2) c>d | e4 | e>d c>e | dc B2 | A4 |: %97
w: |that you stir not|up nor A-|wake,|_ A- *|wake,|A- wake,|_ A- *|wake|my _ Love _|till _ he|please.|
[M:6/8] z6 | z6 | z6 | z6 | z6 | z6 | z6 | z6 | c e2 z2 z | cee ecA | e3 d3 | cec dcB | A3- A3 | %110
w: ||||||||skipp- ing,|Leap- ing up- on _ the|moun- tains,|skipp- ing up- on _ the|Hills. *|
[M:2/4] z4 | z4 | z4 | z4 | z4 | z4 | A2 e2 | z4 | z2 c2 | (e>f e)d | c2 BA | B2 Ac | (dc B)A | %123
w: ||||||rise up,||rise|up, _ _ my|Love, my _|fair one, and|come _ _ a-|
 E4 | z4 |[M:6/4] z12 | z4 z2 z4 A2 | (A2 c2) c2 d2 c2 B2 | A6- A4 cd | e4 d2 c2 A2 c2 | %130
w: way,|||the|rain _ is o- ver and|gone, _ for *|lo, the Win- ter is|
 d6- d4 d2 | (c2 A2) c2 d2 B2 G2 | A6- A4 c2 | B4 B2 B2 c2 d2 | c4 c2 c2 d2 e2 | e4 e2 f2 e2 ^d2 | %136
w: past, _ the|rain _ is o- ver and|gone, _ the|rain is o- ver, the|rain is o- ver, the|rain is o- ver and|
 e6- e4 cd | e4 d2 c2 A2 c2 | d6- d4 d2 | (c2 A2) c2 d2 B2 G2 | A6- A6 :| %141
w: gone, _ for *|lo, the Win- ter is|past, _ the|rain * is o- ver and|gone. _|
V:4
 z4 | z4 | z4 | z4 | z4 | z2 A,,2 | C,>D, E,E, | A,A, F,F, | C,D, E,E, | A,, A,,3 | z4 | %11
w: |||||I|am the Rose of|Sha- ron and the|li- ly of the|val- ley.||
 E,E, A,G,/A,/ | F,E, A,2 | B,A, G,F, | E,>F, E,C, | D,C, B,,A,, | E,2 E,2 | z4 | z4 | z4 | z4 | %21
w: As the Li- ly a-|mong the thorns,|so _ is my|Love _ _ a-|mong _ the _|Daugh- ters.|||||
 z4 | z4 | z4 | z4 | z4 | z4 | A,>G, F,>F, | E,2 F,>G, | A,2 E,2 | A,,4 | C,>D, E,2 | A,,4- | %33
w: ||||||so is my Be-|lo- ved a-|mong the|Sons.|I _ sat|down|
 A,,4 | B,,2 B,,B,, | E, A,,2 A,, | A,,2 E,2 | (A,2 E,2) | z2 A,,A,, | A,,2 A,,A,, | A,2 G,A, | %41
w: _|un- der his|shad- ow with|great de-|light, _|And his|fruit, and his|fruit was _|
 B,A, G,F, | E,4 | z2 A,>A, | E,2 E,E, | [A,,A,]2 E,2 | F,2 D,2 | E,2 A,,2- | A,,4 | %49
w: sweet _ to my|taste,|and his|fruit, and his|fruit was|sweet to|my taste.|_|
[M:6/4] z4 z2 z4 E,2 | A,2 G,2 A,2 B,2 A,2 G,2 | A,2 G,2 F,2 E,4 E,2 | F, D,3 D,2 E, C,3 A,,2 | %53
w: He|brought * me to * the|Ban- quet- ing House, His|Ban- * ner o- * ver|
 D, B,,3 A,,2 E,4 C,2 | A,,4 A,,2 E,4 E,2 | A,2 A,2 A,2 A,4 E,2 | F,4 F,2 E,4 F,2 | D,4 E,2 A,,6 | %58
w: me _ was Love. He|brought me to the|Ban- quet- ing House, His|Ban- ner o- ver|me was Love.|
[M:2/4] z4 | z4 | z4 | z4 | z4 | z4 | z4 | z4 | z2 z A,, | A,,2 A,,>B,, | C,2 D,2 | E,2 E,2 | %70
w: ||||||||for|I am *|sick _|_ of|
 A,,4 | z2 A,2 | E,2 E,2 | A,>G, F,2 | F,2 A,>B, | E,>E, E,2 | z4 | z4 | z4 | z4 | A,E, F,G, | %81
w: Love.|I|charge you,|O ye Daugh-|ters of Je-|ru- sa- lem,|||||that you stir not|
 A,4 | z4 | z4 | z4 | z4 | E,>E, E,E, | A,2 G,F, | E,4- | E,2 E,2 | A,4 | E,2 (A,2 | G,2) F,2 | %93
w: up,|||||that you stir not|up nor A-|wake,|_ A-|wake,|A- wake,|_ A-|
 E,4 | E,2 F,2 | D,2 E,2 | A,,4 |:[M:6/8] z6 | z6 | z2 z z2 A, | E,F,G, A,G,F, | E, E,2 z2 z | %102
w: wake|my Love|till he|please.|||Be-|hold, _ _ _ _ he|com- eth,|
 A,G,F, E,C,A,, | E,3 D,3 | C, A,2 z2 z | z6 | E,E,E, E,2 E, | A,3 D,3 | E,C,A,, D,2 E, | %109
w: Leap- ing up- on _ the|moun- tains,|skipp- ing,||Leap- ing up- on the|moun- tains,|skipp- ing up- on the|
 A,,3- A,,3 |[M:2/4] z4 | E,>F, G,E, | A,3 z | z4 | z4 | E,2 A,2 | z4 | z4 | z2 A,,2 | E,3 E, | %120
w: Hills. *||My Be- lov- ed|spake|||rise up,|||rise|up, my|
 F,2 D,2 | E,2 A,,2 | z4 | z4 | z2 A,2 |[M:6/4] A,4 E,2 F,2 F,2 F,2 | D,6- D,6 | z12 | %128
w: Love, my|fair one,|||for|Lo, the Win- ter is|past, _||
 z4 z2 z4 A,2 | A,4 E,2 F,2 F,2 F,2 | D,6- D,4 B,,2 | (A,,2 C,2) E,2 F,2 D,2 E,2 | %132
w: for|lo, the Win- ter is|past, _ the|rain _ is o- ver and|
 A,,6- A,,4 A,,2 | E,4 E,2 E,2 E,2 E,2 | A,4 A,2 A,2 A,2 A,2 | A,4 A,2 D2 C2 B,2 | A,6- A,4 A,2 | %137
w: gone, _ the|rain is o- ver, the|rain is o- ver, the|rain is o- ver and|gone, _ for|
 A,4 E,2 F,2 F,2 F,2 | D,6- D,4 B,,2 | (A,,2 C,2) E,2 F,2 D,2 E,2 | A,,6- A,,6 :| %141
w: lo, the Win- ter is|past, _ the|rain * is o- ver and|gone. _|
V:5
 x4 | x4 | x4 | x4 | x4 | x4 | x4 | x4 | x4 | x4 | x4 | x4 | x4 | x4 | x4 | x4 | x4 | x4 | x4 | %19
 x4 | x4 | x4 | x4 | x4 | x4 | x4 | x4 | x4 | x4 | x4 | x4 | x4 | x4 | x4 | x4 | x4 | x4 | x4 | %38
 x4 | x4 | x4 | x4 | x4 | x4 | x4 | x4 | x4 | x4 | x4 |[M:6/4] x12 | x12 | x12 | x12 | x12 | x12 | %55
 A,,2 A,,2 A,,2 A,,4 x2 | x12 | x12 |[M:2/4] x4 | x4 | x4 | x4 | x4 | x4 | x4 | x4 | x4 | x4 | x4 | %69
 x4 | x4 | x4 | x4 | x4 | x4 | x4 | x4 | x4 | x4 | x4 | x4 | x4 | x4 | x4 | x4 | x4 | x4 | x4 | %88
 x4 | x4 | x4 | x4 | x4 | x4 | x4 | x4 | x4 |:[M:6/8] x6 | x6 | x6 | x6 | x6 | x6 | x6 | x6 | x6 | %106
 x6 | x6 | x6 | x6 |[M:2/4] x4 | x4 | x4 | x4 | x4 | x4 | x4 | x4 | x4 | x4 | x4 | x4 | x4 | x4 | %124
 x4 |[M:6/4] x12 | x12 | x12 | x12 | x12 | x12 | x12 | x12 | x12 | x12 | x12 | x12 | x12 | x12 | %139
 x12 | x12 :| %141
V:6
 x4 | x4 | x4 | x4 | x4 | x4 | x4 | x4 | x4 | x4 | x4 | x4 | x4 | x4 | x4 | x4 | x4 | x4 | x4 | %19
 x4 | x4 | x4 | x4 | x4 | x4 | x4 | x4 | x4 | x4 | x4 | x4 | x4 | x4 | x4 | x4 | x4 | x4 | x4 | %38
 x4 | x4 | x4 | x4 | x4 | x4 | x4 | x4 | x4 | x4 | x4 |[M:6/4] x12 | x12 | x12 | x12 | x12 | x12 | %55
 x12 | x12 | x12 |[M:2/4] x4 | x4 | x4 | x4 | x4 | x4 | x4 | x4 | x4 | x4 | x4 | x2 E,,2 | x4 | %71
 x2 A,,2 | x4 | x4 | x4 | x4 | x4 | x4 | x4 | x4 | x4 | x4 | x4 | x4 | x4 | x4 | x4 | x4 | x4 | %89
 x4 | A,,4 | x4 | x4 | x4 | x4 | x4 | x4 |:[M:6/8] x6 | x6 | x6 | x6 | x6 | x6 | x6 | x6 | x6 | %106
 x6 | A,,3 x3 | x6 | x6 |[M:2/4] x4 | x4 | x4 | x4 | x4 | x4 | x4 | x4 | x4 | x4 | x4 | x4 | x4 | %123
 x4 | x4 |[M:6/4] A,,4 x8 | x12 | x12 | x10 A,,2 | A,,4 x8 | x12 | x12 | x12 | x12 | x12 | x12 | %136
 x12 | x12 | x12 | x12 | x12 :| %141

